X: 4
T: Kitty's Rambles
R: jig
M: 6/8
L: 1/8
K: Dmix
FED ^cBA|d^cd efg|afd ^cBA|GFG AFD|FED ^cBA|d^cd efg|afd ^cBG|1Ad^c d3:|2Ad^c d2A|:dfa dfa|dfa afd|cee cee|ceg gfe|fdf gfg|aga bag|fed ^cBG|Ad^c d3:|


Tune 1843	Setting 27093

